src/images/app-icons/dark-theme/InstantCheckout.svg

<svg xmlns="http://www.w3.org/2000/svg" viewBox="0 0 32 32"><defs><linearGradient id="InstantCheckout_svg__a" x1="73.5" y1="-24.5" x2="84.5" y2="-24.5" gradientTransform="translate(-66.5 49.5)" gradientUnits="userSpaceOnUse"><stop offset=".001" stop-opacity="0"/><stop offset=".9"/></linearGradient><linearGradient id="InstantCheckout_svg__c" y1="32" x2="32" gradientUnits="userSpaceOnUse"><stop offset=".1" stop-color="#3ddbd9"/><stop offset=".9" stop-color="#4589ff"/></linearGradient><mask id="InstantCheckout_svg__b" x="0" y="0" width="32" height="32" maskUnits="userSpaceOnUse"><path d="M28 11h-6V7a3 3 0 00-3-3h-6a3 3 0 00-3 3v4H4a1 1 0 00-.988 1.152l1.869 12.153A1.99 1.99 0 006.858 26H17v-2H6.858L5.166 13H28zM12 7a1 1 0 011-1h6a1 1 0 011 1v4h-8z" fill="#fff"/><path fill="url(#InstantCheckout_svg__a)" d="M7 23h11v4H7z" data-name="Gradients (black)"/></mask></defs><g data-name="Layer 2"><g data-name="Dark theme icons"><g mask="url(#InstantCheckout_svg__b)"><path fill="url(#InstantCheckout_svg__c)" d="M0 0h32v32H0z"/></g><path d="M18 28v-2a10.011 10.011 0 0010-10h2a12.013 12.013 0 01-12 12z" fill="#f4f4f4"/><path d="M18 23v-2a5.006 5.006 0 005-5h2a7.009 7.009 0 01-7 7z" fill="#f4f4f4"/></g></g></svg>

<svg xmlns="http://www.w3.org/2000/svg" xmlns:xlink="http://www.w3.org/1999/xlink" viewBox="0 0 32 32"><defs><style>.cls-1{fill:#fff;}.cls-2{fill:url(#linear-gradient);}.cls-3{mask:url(#mask);}.cls-4{fill:url(#linear-gradient-2);}.cls-5{fill:#f4f4f4;}</style><linearGradient id="linear-gradient" x1="73.5" y1="-24.5" x2="84.5" y2="-24.5" gradientTransform="translate(-66.5 49.5)" gradientUnits="userSpaceOnUse"><stop offset="0.001" stop-opacity="0"/><stop offset="0.9"/></linearGradient><mask id="mask" x="0" y="0" width="32" height="32" maskUnits="userSpaceOnUse"><path class="cls-1" d="M28,11H22V7a3,3,0,0,0-3-3H13a3,3,0,0,0-3,3v4H4a1,1,0,0,0-.988,1.152L4.881,24.305A1.99,1.99,0,0,0,6.858,26H17V24H6.858L5.166,13H28ZM12,7a1,1,0,0,1,1-1h6a1,1,0,0,1,1,1v4H12Z"/><g id="Gradients_black_" data-name="Gradients (black)"><rect class="cls-2" x="7" y="23" width="11" height="4"/></g></mask><linearGradient id="linear-gradient-2" y1="32" x2="32" gradientUnits="userSpaceOnUse"><stop offset="0.1" stop-color="#3ddbd9"/><stop offset="0.9" stop-color="#4589ff"/></linearGradient></defs><g id="Layer_2" data-name="Layer 2"><g id="Dark_theme_icons" data-name="Dark theme icons"><g class="cls-3"><rect id="Color" class="cls-4" width="32" height="32"/></g><path class="cls-5" d="M18,28V26A10.011,10.011,0,0,0,28,16h2A12.013,12.013,0,0,1,18,28Z"/><path class="cls-5" d="M18,23V21a5.006,5.006,0,0,0,5-5h2A7.009,7.009,0,0,1,18,23Z"/></g></g></svg>
